X:4
%%musicspace -5
%%titlespace -15
T:The Headlands
M:4/4
L:1/4
K:A
 e d | "A" d c B A | "A"A/ c3/ E3/ A/ | "D" F A d e | "E7" e2 e f/g/ | "A" a3/ e/ f a | "F#m" f e d c | "B7" c3/ B/ A c | "E7" B2 e3/ d/ |
"A" d c B A | A/ c3/ E3/ A/ | "D" F A d f | a2 g f | "A"e a A c |"E7" B f e d | "A" c2 "D" A2 | "A" A2 :|
"B"e f/g/ | "A"a3/ e/ f a | "A"c e c A | "D" d A d f | "E7"e2 e f/g/ | "A"a3/ e/ f a | "F#m" f e d c | "B7" c3/ B/ A c | "E7" B2 e f/g/ | 
"A" a e e a | "A" c e c A | "D" d A d f | "D"a2 g f | "A"e a A c | "E7" B f e d | "A"c2 "D"A2 | "A"A2 "E7"e f/g/ | 
"A"a3/ e/ e a | "A" c e c A | "D"d A d f | "A"e2 "E7"e f/g/ | "A" a3/ e/ f a | "F#m"f e d c | "B7" c3/ B/ A c | "E7" B2 e3/ d/ |
"A"d c B A | "A"A/ c3/ E3/ A/ | "D" F A d f | "D"a2 e d |"A" e a A c | "E7" B f e d | "A" c2 "D"A2 | "A"A2 ||

